src/assets/wed_icon/icon_28/alignment_default.svg

<svg width="28" height="28" viewBox="0 0 28 28" fill="none" xmlns="http://www.w3.org/2000/svg">
<path fill-rule="evenodd" clip-rule="evenodd" d="M26 4.75C26 4.33579 25.6642 4 25.25 4L2.75 4C2.33578 4 2 4.33579 2 4.75C2 5.16422 2.33579 5.5 2.75 5.5L25.25 5.5C25.6642 5.5 26 5.16421 26 4.75Z" fill="#A9AABC"/>
<path fill-rule="evenodd" clip-rule="evenodd" d="M20 14C20 13.5858 19.6642 13.25 19.25 13.25L2.75 13.25C2.33579 13.25 2 13.5858 2 14C2 14.4142 2.33579 14.75 2.75 14.75L19.25 14.75C19.6642 14.75 20 14.4142 20 14Z" fill="#A9AABC"/>
<path fill-rule="evenodd" clip-rule="evenodd" d="M14 23.25C14 22.8358 13.6642 22.5 13.25 22.5L2.75 22.5C2.33579 22.5 2 22.8358 2 23.25C2 23.6642 2.33579 24 2.75 24L13.25 24C13.6642 24 14 23.6642 14 23.25Z" fill="#A9AABC"/>
</svg>

<svg xmlns="http://www.w3.org/2000/svg" width="28" height="28" fill="none"><path fill="#A9AABC" fill-rule="evenodd" d="M26 4.75a.75.75 0 0 0-.75-.75H2.75a.75.75 0 1 0 0 1.5h22.5a.75.75 0 0 0 .75-.75M20 14a.75.75 0 0 0-.75-.75H2.75a.75.75 0 0 0 0 1.5h16.5A.75.75 0 0 0 20 14M14 23.25a.75.75 0 0 0-.75-.75H2.75a.75.75 0 0 0 0 1.5h10.5a.75.75 0 0 0 .75-.75" clip-rule="evenodd"/></svg>
